X: 27691
T: Môrgawr
R: reel
M: 4/4
K: Dmixolydian
DFAF G2 AG|FEDE C2 A,2|DFAF G2AG|FEDC D4:|
|:D c2 D B4|cBAG FG A2|D c2 D B4|cBAF d4:|
|:DFAd c2 Ad|c2 Ad cBGE|DFAd c2 Ad|cAGE D4:|

